!!!COM: Bach, Johann Sebastian
!!!OPR: Die Kunst der Fuge
!!!XEN: The Art of Fugue
!!!OTL:
!!!OMV: 8
!!!SCT: BWV 1080
!!!SCA: Thematisch-systematisches Verzeichnis der musikalischen Werke Johann Sebastian Bach: Bach-Werke-Verzeichnis (Schmieder)
!!!YOR: Bach Gesellschaft Edition xxv,1
!!!EED: Frances Bennion
!!!ENC: Frances Bennion
!!!CDT: 1685/3//-1750/7/28/
!!!OCY: Deutschland
!!!YEC: Copyright (c) 1994, 2000 Center for Computer Assisted Research in the Humanities
!!!YEM: Rights to all derivative editions reserved.
!!!YEM: Refer to licensing agreement for further details.
!!!YEN: United States of America
**kern	**kern	**kern
*k[b-]	*k[b-]	*k[b-]
*d:	*d:	*d:
*clefG	*clefG	*clefC
*M2/2	*M2/2	*M2/2
=1	=1	=1
1r	2r	1r
.	2d	.
=2	=2	=2
1r	4c	1r
.	4f	.
.	4B	.
.	4B-	.
=3	=3	=3
1r	4A	1r
.	4d	.
.	2G	.
=4	=4	=4
1r	4F	1r
.	4G	.
.	8A	.
.	8G	.
.	4A	.
=5	=5	=5
1r	4D	1r
.	4d	.
.	4c	.
.	4B	.
=6	=6	=6
1r	4c	2r
.	4f	.
.	4e	2A
.	4d#	.
=7	=7	=7
1r	2e	4G
.	.	4c
.	8r	4F#
.	8d	.
.	8c	4F
.	8B	.
=8	=8	=8
1r	2c	4E
.	.	4A
.	8r	2D
.	8B	.
.	8A	.
.	8G#	.
=9	=9	=9
1r	8A	4C
.	8c	.
.	8B	4D
.	8d	.
.	8G#	8E
.	8f	8D
.	8e	4E
.	8d	.
=10	=10	=10
1r	8c	4AA
.	8B	.
.	8c	4G
.	8e	.
.	8a	4F
.	8d	.
.	8c#	4E
.	8e	.
=11	=11	=11
2r	8d	4F
.	8f	.
.	8e	4B-
.	8g	.
2dd	8f	4A
.	8c	.
.	8B	4G#
.	8f	.
=12	=12	=12
4cc	4e	2A
4ff	4c	.
4b	4d	8r
.	.	8G
4b-	4g	8F
.	.	8E
=13	=13	=13
4a	4c	2F
4dd	4A	.
2g	4B	8r
.	.	8E
.	4e	8D
.	.	8C#
=14	=14	=14
4f	8A	2D
.	8c	.
4g	8B-	.
.	8d	.
8a	[2c	8r
8g	.	8C
4a	.	8BB-
.	.	8AA
=15	=15	=15
4d	8c]	2BB-
.	8B-	.
4dd	8A	.
.	8G	.
4cc	8A	2C
.	8F	.
4b-	8G	.
.	8E	.
=16	=16	=16
4a	8F	8FF
.	8cc	8AA
4ff	8b-	8GG
.	8a	8FF
4ee	8b-	8GG
.	8g	8EE
4dd	8a	8FF
.	8f	8DD
=17	=17	=17
2cc#	4e	8AA
.	.	8G
.	4b-	8F
.	.	8E
4r	4a	8F
.	.	8D
8cc#	4g	8E
16dd	.	8C#
16ee	.	.
=18	=18	=18
8a	4f	1D
8dd	.	.
8cc	4E	.
8b-	.	.
8cc	4F#	.
8a	.	.
8b-	[4G	.
8g	.	.
=19	=19	=19
[1a	8G]	4C#
.	8g	.
.	8f	4A
.	8e	.
.	8f	4D
.	8d	.
.	8e	4F
.	8c#	.
=20	=20	=20
8a]	[1d	4BB-
8a	.	.
8g	.	4AA
8f	.	.
8g	.	4BB-
8e	.	.
8f	.	4GG
8dd	.	.
=21	=21	=21
4f	4d]	8AA
.	.	8A
4e	4c#	8G
.	.	8F
8r	2a	8G
8cc#	.	8E
[4dd	.	8F
.	.	8D
=22	=22	=22
8dd]	4g	2E
8b	.	.
8a	4cc	.
8g	.	.
8a	4f#	4D
8cc	.	.
[4b	4f	4G
=23	=23	=23
8b]	4e	4C#
8g#	.	.
8f#	4a	4C
8e	.	.
8f#	2d	4BB
8a	.	.
8g#	.	4E
8b	.	.
=24	=24	=24
8a	4c	2AA
8cc	.	.
8b	4d	.
8dd	.	.
[2cc	8e	4r
.	8d	.
.	4e	8A
.	.	8G
=25	=25	=25
8cc]	4A	4F#
8ee-	.	.
8dd	4F#	4D
8cc	.	.
8dd	4G	4E
8b-	.	.
8cc	[4A	4F#
8a	.	.
=26	=26	=26
[1b-	8A]	4GG
.	8a	.
.	8g	4AA
.	8f#	.
.	8g	4BB-
.	8e	.
.	8f	4GG
.	8d	.
=27	=27	=27
8b-]	4e	4C
8dd	.	.
8cc	4f	4D
8b-	.	.
8cc	4g	4E
8a	.	.
8b-	4e	4C
8g	.	.
=28	=28	=28
4a	4f	8FF
.	.	8G
4dd	4a	8F
.	.	8E
4g#	8r	8F
.	8B	8D
4g	8c#	8E
.	8e	8C#
=29	=29	=29
4f	4A	8D
.	.	8E-
4b-	4f	8D
.	.	8C
4e	8r	8D
.	8G	8BB-
4e-	8A	8C
.	8c	8AA
=30	=30	=30
4d	4F	8BB-
.	.	8C
4g	4d	8BB-
.	.	8AA
4c#	8r	8BB-
.	8E	8GG
[4c	8F#	8AA
.	8A	8FF#
=31	=31	=31
8c]	4D	[1GG
8c	.	.
8B-	4F#	.
8A	.	.
8B-	4G	.
8d	.	.
8c	4A	.
8e-	.	.
=32	=32	=32
8d	4B-	1GG_
8a	.	.
8g	4A	.
8f#	.	.
8g	4B-	.
8b-	.	.
8a	4c	.
8cc	.	.
=33	=33	=33
[2b-	8d	8GG]
.	8f	8AA
.	8e	8GG
.	8d	8FF
8b-]	4c#	8GG
8g	.	8EE
8a	4d	8FF
8f	.	8DD
=34	=34	=34
2g	8e	8CC#
.	8d	8BB-
.	8c#	8AA
.	8B	8GG
4r	4c#	8AA
.	.	8FF
4cc#	4e	8GG
.	.	8EE
=35	=35	=35
8dd	4a	4FF
8g	.	.
8f	4C#	4AA
8e	.	.
8f	4D	2D
8a	.	.
8g	4B-	.
8b-	.	.
=36	=36	=36
8a	4E	4C
8e	.	.
8d	2A	4F
8c#	.	.
8d	.	4BB
8f	.	.
8e	4G	4BB-
8g	.	.
=37	=37	=37
8f	4C	4AA
8c	.	.
8B	2F	4D
8A	.	.
8B	.	2GG
8d	.	.
8c#	4E	.
8e	.	.
=38	=38	=38
8d	4A	4FF
8f	.	.
8e	2r	4GG
8g	.	.
8f	.	8AA
8e	.	8GG
8d	4G	4AA
8c#	.	.
=39	=39	=39
2d	2F	2DD
2dd	4r	2r
.	[4b-	.
=40	=40	=40
4cc	8b-]	1r
.	8g#	.
4ff	8a	.
.	8a	.
4b	8a	.
.	8f#	.
4b-	8g	.
.	8g	.
=41	=41	=41
4a	8g	1r
.	8e	.
4dd	8f	.
.	8f	.
2g	8f	.
.	8e	.
.	8d	.
.	8c#	.
=42	=42	=42
4f	2.d	8r
.	.	8B-
4g	.	8A
.	.	8G
8a	.	8F#
8g	.	8G
4a	[4c	8E
.	.	8F#
=43	=43	=43
2d	8c]	4G
.	8c	.
.	8B-	4D
.	8A	.
4r	8B-	2G
.	8d	.
[4ee-	8c	.
.	8B-	.
=44	=44	=44
8ee-]	4A	4F
8cc#	.	.
8dd	4r	4B-
8dd	.	.
8dd	2g	4E
8b	.	.
8cc	.	4E-
8cc	.	.
=45	=45	=45
8cc	4f	4D
8a	.	.
8b-	4d	4G
8b-	.	.
8b-	[2e-	2C
8a	.	.
8g	.	.
8f#	.	.
=46	=46	=46
2.g	8e-]	4BB-
.	8d	.
.	8c	4C
.	8B-	.
.	8A	8D
.	8B-	8C
[4f	8G	4D
.	8A	.
=47	=47	=47
8f]	4B	2GG
8g	.	.
8f	2c	.
8e-	.	.
8d	.	4r
8e-	.	.
8c	[4B-	4G
8d	.	.
=48	=48	=48
8e	8B-]	2C
8cc	8A	.
8b-	8G	.
8a	8F	.
8g	8E	4r
8a	8F	.
8f	8D	4C
8g	8E	.
=49	=49	=49
8a	4F	2FF
8g	.	.
8f	4r	.
8e	.	.
8d	2a	4r
8e	.	.
8c	.	[4F
8d	.	.
=50	=50	=50
4B	4g	8F]
.	.	8D#
4g	4cc	8E
.	.	8E
4a	4f#	8E
.	.	8C#
4b-	4f	8D
.	.	8D
=51	=51	=51
4g#	4e	8D
.	.	8BB
4ee	4a	8C
.	.	8C
2r	2d	8C
.	.	8BB
.	.	8AA
.	.	8GG#
=52	=52	=52
8r	4c	2AA
8ee	.	.
8dd	4d	.
8cc	.	.
8b	8e	4r
8cc	8d	.
8a	4e	[4G
8b	.	.
=53	=53	=53
4cc#	2A	8G]
.	.	8F
4dd	.	8E
.	.	8D
8ee	4r	8C#
8dd	.	8D
4ee	[4G	8BB
.	.	8C#
=54	=54	=54
4a	8G]	2D
.	8F	.
8b-	8G	.
8a	8A	.
8g	8B-	4r
8f	8A	.
[4g	8c	4E
.	8B-	.
=55	=55	=55
8g]	2A	4F
8c	.	.
8d	.	8FF
8e	.	8GG
8f	4r	4AA
8e	.	.
8g	[4d	4BB
8f	.	.
=56	=56	=56
2e	8d]	4C
.	8G	.
.	8A	4BB-
.	8B-	.
4r	8c	4AA
.	8B-	.
[4a	8d	4F#
.	8c	.
=57	=57	=57
8a]	2B-	8GG
8d	.	8F
8e	.	8E
8f	.	8D
8g	4r	8C#
8f	.	8D
8a	[4e	8BB
8g	.	8C#
=58	=58	=58
2f	8e]	8D
.	8c#	8E
.	8d	8F
.	8e	8G
4r	8f	8A
.	8e	8G
[4dd	8g	8B-
.	8f	8A
=59	=59	=59
4dd]	2e	8G
.	.	8F
2cc	.	8A
.	.	8G
.	2d	8F
.	.	8E
[4b-	.	8G
.	.	8F
=60	=60	=60
4b-]	4c	8E
.	.	8F
4a	2f	8G
.	.	8A
2g	.	8B-
.	.	8A
.	4e	8c
.	.	8B-
=61	=61	=61
8f	2f	8A
8cc	.	8G
8dd	.	8F
8ee	.	8E
2ff	4r	8D
.	.	8A
.	[4dd	8C
.	.	8BB
=62	=62	=62
4ee	8dd]	[1C
.	8b	.
4aa	8cc	.
.	8cc	.
4dd	8cc	.
.	8a	.
4dd-	8b-	.
.	8b-	.
=63	=63	=63
4cc	8b-	2C]
.	8g#	.
4ff	8a	.
.	8a	.
2b-	8a	4r
.	8g	.
.	8f	4C#
.	8e	.
=64	=64	=64
4a	2.f	8D
.	.	8d
4b-	.	8c
.	.	8B-
8cc	.	8A
8b-	.	8B-
4cc	[4e-	8G
.	.	8A
=65	=65	=65
4f	8e-]	8B-
.	8d	8A
2r	8e	8G
.	8f	8F
.	8g	8E
.	8f	8F
[4b-	4g	8D
.	.	8E
=66	=66	=66
8b-]	4c	8F
8a	.	8E
8b	8d	8D
8cc	8e	8C
8dd	8f	8BB
8cc	8e	8C
4dd	4f	8AA
.	.	8BB
=67	=67	=67
8g	4e	8C
8b	.	8D
8cc	2r	8E
8dd	.	8F
8ee	.	8G
8ff	.	8A
8gg	4d	8B-
8gg	.	8G
=68	=68	=68
8gg	4c	4A
8ee	.	.
8ff	4a	4d
8ff	.	.
8ff	4b-	4G
8dd	.	.
8ee-	4B-	4G-
8ee-	.	.
=69	=69	=69
8ee-	4A	4F
8cc#	.	.
8dd	4f	4B-
8dd	.	.
8dd	4g	2E-
8cc	.	.
8b-	4G	.
8a	.	.
=70	=70	=70
8b-	8F	4D
8f	8f	.
2b-	8e-	4E-
.	8d	.
.	8c	8F
.	8d	8E-
4a	8B-	4F
.	8c	.
=71	=71	=71
8b-	4d	4BB-
8ff	.	.
8ee-	2.r	2B-
8dd	.	.
8cc	.	.
8dd	.	.
8b-	.	4A
8cc	.	.
=72	=72	=72
4dd	4r	8B-
.	.	8G
2gg	4b-	8A
.	.	8B-
.	2a	8c
.	.	8B-
4ff#	.	8d
.	.	8c
=73	=73	=73
8gg	4d	4B-
8dd	.	.
8cc	2g	4e-
8b-	.	.
8a	.	4c
8b-	.	.
8g	4f#	4d
8a	.	.
=74	=74	=74
2b-	8g	4G
.	8d	.
.	8g	4E-
.	8g	.
2a	8g	4C#
.	8e	.
.	8f	4D
.	8f	.
=75	=75	=75
4dd	8f	4BB
.	8d	.
4g	8e-	4C
.	8e-	.
2f	8e-	4AA
.	8c#	.
.	8d	4BB-
.	8d	.
=76	=76	=76
2e-	8d	4GG
.	8B	.
.	8c	4AA-
.	8c	.
4d	8c	4FF#
.	8B-	.
4e-	8A	[4GG
.	8G	.
=77	=77	=77
4c#	2A	8GG]
.	.	8EE
4d	.	8FF
.	.	8FF
[2g	4B	8FF
.	.	8DD
.	4c#	8EE
.	.	8EE
=78	=78	=78
8g]	8d	4DD
8e	8A	.
8f	4.d	2.r
8f	.	.
4e	.	.
.	8B	.
4a	8c	.
.	8c	.
=79	=79	=79
4.dd	8c	4r
.	8A	.
.	8B-	4.G
8ee	8B-	.
4cc#	4A	.
.	.	8E
4dd	4a	8F
.	.	8F
=80	=80	=80
4b	4g	8F
.	.	8D#
4cc	4cc	8E
.	.	8E
4r	4f#	8E
.	.	8C#
4b-	4f	8D
.	.	8D
=81	=81	=81
4g#	4e	8D
.	.	8BB
4a	4a	8C
.	.	8C
4r	4d	8C
.	.	8BB
4dd	[4b	8AA
.	.	8GG#
=82	=82	=82
4cc	8b]	2AA
.	8g#	.
4ff	8a	.
.	8a	.
4b	8a	4r
.	8f#	.
4b-	8g	4D
.	8g	.
=83	=83	=83
4a	8g	4C#
.	8e	.
4dd	8f	4C
.	8f	.
2g	8f	4BB
.	8e-	.
.	8d	[4C
.	8c	.
=84	=84	=84
4f#	2d	8C]
.	.	8BB-
4g	.	8AA
.	.	8GG
8a	4r	8FF#
8g	.	8GG
4a	[4c	8EE
.	.	8FF#
=85	=85	=85
8d	4c]	4GG
8e	.	.
8f#	4B-	2G
8g	.	.
8a	4c	.
8g	.	.
8b-	4d	4F#
8a	.	.
=86	=86	=86
8cc	4G	4G
8b	.	.
8dd	4B	4F
8cc#	.	.
8ee	4c#	4E
8dd	.	.
8ff	4d	4D
8ee	.	.
=87	=87	=87
8gg	4A	8C#
8dd	.	8B-
8cc#	2r	8A
8ee	.	8G
4a	.	8F
.	.	8G
4gg	4cc#	8E
.	.	8F
=88	=88	=88
4ff	4dd	8D
.	.	8E
4aa	2r	8C
.	.	8D
8dd	.	8BB-
8ee	.	8C
8ff	4cc	8AA
8ff	.	8BB-
=89	=89	=89
8ff	8b-	4GG
8dd#	8b-	.
8ee	8b-	4C
8ee	8g	.
8ee	8a	4FF#
8cc#	8a	.
8dd	8a	4FF
8dd	8f	.
=90	=90	=90
8dd	8g	4EE
8b	8g	.
8cc	8g	4AA
8cc	8e	.
8cc	4f	4DD
8a	.	.
8b-	8d	16G
.	.	16F
8b-	8g	16E
.	.	16D
=91	=91	=91
8b-	4e	16C#
.	.	16D
8g	.	16E
.	.	16F
8cc#	2r	16E
.	.	16D
8cc#	.	16C#
.	.	16BB
8cc#	.	16AA
.	.	16BB
8g	.	16C#
.	.	16D
8ee	8g	16C#
.	.	16BB
8ee	8g	16AA
.	.	16GG
=92	=92	=92
8ee	8g	4FF
8cc#	8e	.
4dd	4f	16r
.	.	16DD
.	.	32EE
.	.	32FF
.	.	32GG
.	.	32AA
16r	4r	2BB-
16cc	.	.
16b-	.	.
16a	.	.
16g	4g	.
16ff	.	.
16ee	.	.
16dd	.	.
=93	=93	=93
2cc#	2a	8AA
.	.	8A
.	.	8G
.	.	8F
8r	2r	8E
8a	.	8F
8b	.	8D
8cc#	.	8E
=94	=94	=94
8dd	4r	2F
8cc#	.	.
8ee	4a	.
8dd	.	.
4ff	4d	8r
.	.	8E
[4b-	4e	8D
.	.	8C#
=95	=95	=95
8b-]	4r	2D
8a	.	.
8dd	4f	.
8cc	.	.
8ee-	4g	8r
8dd	.	8C
8f#	4a	8BB-
8cc	.	8AA
=96	=96	=96
8b-	4r	4GG
8dd	.	.
8ee-	4b-	4G
8gg	.	.
8ff	4a	4A
8dd	.	.
8ee	4g	4AA
8cc#	.	.
=97	=97	=97
8cc#	4r	2BB-
8dd	.	.
4d	8f	.
.	8e	.
4dd	4f	8r
.	.	8B-
4ee	4g	8A
.	.	8G
=98	=98	=98
4cc#	2a	8G
.	.	8E
4dd	.	8F
.	.	8F
[2gg	4b	8F
.	.	8D
.	4cc#	8E
.	.	8E
=99	=99	=99
8gg]	4dd	4D
8ee	.	.
8ff	4.a	4d
8ff	.	.
[2ff	.	4A
.	8f	.
.	8g	4B
.	8g	.
=100	=100	=100
8ff]	4g	4r
8ee	.	.
8aa	4e	4c
8aa	.	.
4aa	8r	4d
.	8ff	.
4gg#	8ee	4e
.	8dd	.
=101	=101	=101
4aa	8cc	4r
.	8b	.
8dd	4.a	4f
8b	.	.
4cc	.	4e
.	4a	.
4b	.	4d
.	8g#	.
=102	=102	=102
4a	8a	4r
.	8e	.
2.r	8a	8c
.	8g#	8B
.	8a	4c
.	8cc	.
.	8b	4d
.	8dd	.
=103	=103	=103
4r	8cc	[1e
.	8ee	.
8ccc	4a	.
8aa	.	.
8bb	4dd	.
8gg#	.	.
8aa	4cc	.
8ff#	.	.
=104	=104	=104
8gg#	4b	4e]
8ee	.	.
2.r	8dd	8G#
.	8b	8f
.	8cc	8A
.	8a	8e
.	8b	8B
.	8g#	8d
=105	=105	=105
4r	4.a	8c
.	.	8B
4ee	.	4.c
.	8g	.
4a	4f#	.
.	.	8B
4b	[4f	8A
.	.	8G#
=106	=106	=106
4r	8f]	4.A
.	8d	.
4cc	4e	.
.	.	8G
4dd	4r	8F
.	.	8E
4ee	[4a	8D
.	.	8C
=107	=107	=107
4r	8a]	4BB
.	8g#	.
4ff	8dd	4EE
.	8g#	.
4ee	8a	4FF#
.	8cc	.
4dd	8b	4GG#
.	8f	.
=108	=108	=108
4r	8e	4.AA
.	8d#	.
8cc	4e	.
8b	.	8GG#
4cc	2r	8AA
.	.	8C
4dd	.	8BB
.	.	8D
=109	=109	=109
[1ee	8r	2C
.	8e	.
.	8g#	.
.	8b	.
.	8a	4r
.	8f#	.
.	8g	4C#
.	8e	.
=110	=110	=110
8ee]	4f	4D
8a	.	.
8cc	4f#	4AA
8ee-	.	.
8dd	4.g	4BB-
8b-	.	.
8cc	.	4D
8a	8f#	.
=111	=111	=111
4b-	4g	8GG
.	.	8D
8r	8r	8G
8gg	8dd	8B-
4ff#	8cc	8A
.	8a	8c
4ff	8dd	8B
.	8a-	8d
=112	=112	=112
8r	4g	8E-
8ee-	.	8G
8dd	4.a-	8F
8cc	.	8A-
4dd	.	8BB
.	8g	8D
[4ee-	8f#	8C
.	8g	8E-
=113	=113	=113
8ee-]	4a	8FF#
8dd	.	8AA
8cc#	4b-	8GG
8dd	.	8BB-
8ee	4r	2CC#
8ff#	.	.
8gg	4b-	.
8gg	.	.
=114	=114	=114
8gg	4a	[1DD
8ee	.	.
8ff	4dd	.
8ff	.	.
8ff	4g#	.
8dd	.	.
8ee-	4g	.
8ee-	.	.
=115	=115	=115
8ee-	4f	1DD_
8cc#	.	.
8dd	4b-	.
8dd	.	.
8dd	4e	.
8b	.	.
8cc	4e-	.
8cc	.	.
=116	=116	=116
8cc	4d	1DD_
8a	.	.
8b-	4g	.
8b-	.	.
8b-	4c#	.
8g	.	.
8a-	4c	.
8a-	.	.
=117	=117	=117
8a-	4B	4DD]
8f#	.	.
2g	4B-	8D
.	.	8D
.	2A	8D
.	.	8BB
4f#	.	8C
.	.	8C
=118	=118	=118
2g	4G	8C
.	.	8AA
.	8d	8BB-
.	8d	8GG
8f#	8d	4D
8g	8B-	.
[4a	8c	4DD
.	8c	.
=119	=119	=119
4a]	8c	[4GG
.	8A	.
8g	8B-	16GG]
.	.	16AA
8g	8B-	16BB-
.	.	16C
8g	4A	4D
8e	.	.
8f	8d	16C
.	.	16BB
8f	8d	16AA
.	.	16GG
=120	=120	=120
4e-	8d	4C
.	8B	.
8a	8c	16GG
.	.	16FF#
8a	8c	16EE
.	.	16DD
8a	4B-	4GG
8g	.	.
8b-	8g	16G
.	.	16F
8b-	8g	16E
.	.	16D
=121	=121	=121
4a	8g	4C#
.	8e	.
8dd	8f	16D
.	.	16C
8dd	8f	16BB
.	.	16AA
8dd	4e	4GG#
8b	.	.
8cc	8a	16AA
.	.	16GG
8cc	8a	16FF
.	.	16EE
=122	=122	=122
4b	8a	4DD
.	8g#	.
4ee	8b	4CC
.	8a	.
4ff#	8cc	4DD
.	8b	.
4gg#	8dd	4EE
.	8cc	.
=123	=123	=123
4aa	8ee	4FF
.	8dd	.
4bb	8ff	4DD
.	8ee	.
4ee	8dd	4EE
.	8cc	.
4gg#	8b	4E
.	8cc	.
=124	=124	=124
2aa	2a	8AA
.	.	8E
.	.	8A
.	.	8A
2r	2r	8A
.	.	8F
.	.	8G
.	.	8G
=125	=125	=125
4r	2r	8G
.	.	8E
8aa	.	8F
8aa	.	8F
8aa	2d	8F
8ff	.	8D
8gg	.	4B-
8gg	.	.
=126	=126	=126
8gg	4c	4A
8ee	.	.
8ff	4f	4d
8ff	.	.
8ff	4B	4G#
8ee	.	.
8dd	4B-	4G
8cc#	.	.
=127	=127	=127
8dd	4A	4F
8ff	.	.
8ee	4d	4B-
8dd	.	.
8cc#	2G	[2E
8dd	.	.
8b	.	.
8cc#	.	.
=128	=128	=128
8dd	4F	4E]
8a	.	.
8b-	4G	[2D
8g	.	.
4e	8A	.
.	8G	.
[4g	4A	8D]
.	.	8C#
=129	=129	=129
8g]	4D	4D
8g	.	.
8f	4d	2.r
8e	.	.
8f#	4c	.
8dd	.	.
8g#	4B	.
[8b	.	.
=130	=130	=130
8b]	4c	1r
8b	.	.
8a	4f	.
8g#	.	.
8a	4e	.
8ff	.	.
8b	4d	.
[8dd	.	.
=131	=131	=131
8dd]	4e	2r
8dd	.	.
8cc	4a	.
8b	.	.
8cc#	4g	2A
8aa	.	.
8dd	[4f	.
8ff	.	.
=132	=132	=132
4b	8f]	4G
.	8d#	.
4ee	8e	4c
.	8e	.
4aa	8e	4F#
.	8c#	.
4a	8d	4F
.	8d	.
=133	=133	=133
4g	8d	4E
.	8B	.
4cc	8c	4A
.	8c	.
4ff	8c	2D
.	8B	.
4f	8A	.
.	8G#	.
=134	=134	=134
8e	2.A	4C
8ee	.	.
8dd	.	4D
8cc	.	.
8b	.	8E
8cc	.	8D
8a	4G#	4E
8b	.	.
=135	=135	=135
8cc	8A	4AA
8ee	8c	.
8dd	8B	2r
8ff	8A	.
4ee	8G#	.
.	8A	.
[4dd	8F#	4BB
.	8G#	.
=136	=136	=136
4dd]	8A	8C
.	8e	8BB
4cc	2a	8C
.	.	8D
4b	.	8E
.	.	8D
4cc#	[4g	8F
.	.	8E
=137	=137	=137
8dd	8g]	8F
8a	8f	8D
8g	8e	2G
8f	8d	.
8e	8c#	.
8d	8d	.
4e	8B	8F
.	8c#	8E
=138	=138	=138
8d	4d	4F
8e	.	.
8f	2r	4A
8g	.	.
8a	.	4F#
8g	.	.
8b-	4F#	4D
8a	.	.
=139	=139	=139
2b-	8G	2G
.	8A	.
.	8B-	.
.	8c	.
2b	8d	4r
.	8c	.
.	8e	4G
.	8d	.
=140	=140	=140
2cc	8e	8C
.	8f	8c
.	8g	8B-
.	8a	8A
2r	8b-	8G
.	8a	8A
.	8cc	8F
.	8b-	8G
=141	=141	=141
8r	4cc	8A
8ff	.	8B-
8ee	2.r	8c
8dd	.	8d
8cc	.	8e
8dd	.	8d
8b-	.	8f
8cc	.	8e
=142	=142	=142
8a	8r	4f
8cc	8a	.
8b-	8g	4B-
8a	8f	.
8g	8e	4c
8a	8f	.
8f	8d	4C
8g	8e	.
=143	=143	=143
2a	8f	8F
.	8c	8G
.	2f	8A
.	.	8B-
2g	.	8c
.	.	8B
.	[4e	8d
.	.	8c#
=144	=144	=144
2f	4e]	8d
.	.	8BB
.	4.d	8C#
.	.	8D
2e	.	8E
.	8B	8D
.	8c#	8F
.	8e	8E
=145	=145	=145
4d	8A	8G
.	8B	8F
2.r	8c#	8E
.	8d	8D
.	8e	8C#
.	8d	8D
.	8f	8BB
.	8e	8C#
=146	=146	=146
1r	8g	8D
.	8f#	8C
.	8g#	8BB
.	8a	8AA
.	8b	8GG#
.	8a	8AA
.	8cc	8FF#
.	8b	8GG#
=147	=147	=147
2r	8dd	4AA
.	8cc	.
.	8b	2A
.	8a	.
2ff	8b	.
.	8cc	.
.	8b	4G#
.	8dd	.
=148	=148	=148
4ee	8dd	4A
.	8b	.
4aa	8cc	4c
.	8cc	.
4dd#	8cc	4F#
.	8a#	.
4dd	8b	4G#
.	8b	.
=149	=149	=149
4cc	8b	4r
.	8g#	.
4ff	8a	4A
.	8a	.
2b-	8a	4B-
.	8g	.
.	8f	4c
.	8e	.
=150	=150	=150
4a	8f	4r
.	8a	.
4b-	8g	4d
.	8f	.
8cc	8e	4c
8b-	8f	.
4cc	8d	4B-
.	8e	.
=151	=151	=151
4f	8f	4r
.	8a	.
4.ff	8cc	8A
.	8b-	8G
.	4cc	4A
8ee	.	.
8dd	4r	4B
8ff	.	.
=152	=152	=152
4ee	2r	8c
.	.	8d
8aa	.	8c
8gg#	.	8B
4aa	2cc	8A
.	.	8c
4dd#	.	8f#
.	.	8a
=153	=153	=153
4ee	4b	8a
.	.	8f#
4gg	4ee	8g
.	.	8g
4cc#	4a#	8g
.	.	8e
4dd	4a	8f
.	.	8f
=154	=154	=154
4r	4g	8f
.	.	8d#
4ee	4cc	8e
.	.	8e
4ff	2f	8e
.	.	8d
4gg	.	8c
.	.	8B
=155	=155	=155
4r	4e	8c
.	.	8e
4aa	4f	8d
.	.	8c
4gg	8g	8B
.	8f	8c
4ff	4g	8A
.	.	8B
=156	=156	=156
4r	4c	8c
.	.	8d
8ee	4.cc	8c
8dd	.	8B-
4ee	.	4A
.	8b-	.
4ff#	8a	4d
.	8cc	.
=157	=157	=157
8gg	4b-	4g
8dd	.	.
8ee	4a	4c
8ff#	.	.
8gg	4g	4B-
8ff#	.	.
8aa	4f#	4A
8gg	.	.
=158	=158	=158
8bb-	8g	2G
8aa	8f	.
8gg	8e-	.
8ff	8d	.
8ee-	4c	8r
8dd	.	8B-
8ee-	4r	8A
8ee-	.	8G
=159	=159	=159
8ee-	4r	4F
8cc#	.	.
8dd	4d	4B-
8dd	.	.
8dd	4G	4E
8b	.	.
8cc	4A	4E-
8cc	.	.
=160	=160	=160
8cc	4r	4D
8a	.	.
8b-	4B-	4G
8b-	.	.
8b-	4c	2C
8a	.	.
8g	4d	.
8f#	.	.
=161	=161	=161
8g	4r	4BB-
8b-	.	.
8a	4e-	4C
8g	.	.
8f#	4d	8D
8g	.	8C
8e	4c	4D
8f#	.	.
=162	=162	=162
8g	4r	2GG
8d	.	.
4.g	8B-	.
.	8A	.
.	4B-	2r
8b-	.	.
8a	4c	.
8cc	.	.
=163	=163	=163
[1b-	8d	4r
.	8e-	.
.	8d	8G
.	8c#	8A
.	8d	4G
.	8f	.
.	8e	4C#
.	8g	.
=164	=164	=164
4b-]	8f	4D
.	8e	.
8a	4.f	4.d
8g	.	.
4a	.	.
.	8e	8c
[4dd	8d	8B-
.	8f	8A
=165	=165	=165
8dd]	8e	4.G
8cc	8f#	.
8b	4.g	.
8dd	.	8F
8cc#	.	8E
8dd	8f	8D
[4ee	8e	8C#
.	8g	8B-
=166	=166	=166
8ee]	8f	4.A
8dd	8g	.
8cc#	4.a	.
8ee	.	8G
8dd	.	8F
8ee	8g	8E
[4ff	8f	8D
.	8a	8c
=167	=167	=167
8ff]	8g#	4.B
8ee	8a	.
8dd	2b	.
8ff	.	8A
8ee	.	8G#
8dd	.	8B
8cc#	8a	4E
8b	8g#	.
=168	=168	=168
4cc#	8a	[1A
.	8e	.
4ff	8a	.
.	8a	.
8b	8a	.
8dd	8f#	.
8cc#	8g	.
8ee	8g	.
=169	=169	=169
4a	8g	1A]
.	8e	.
8aa	8f	.
8aa	8d	.
8aa	8B	.
8ff#	8d	.
8gg	8c#	.
8gg	8e	.
=170	=170	=170
8gg	4A	2r
8ee	.	.
8ff	8d	.
8ff	8c	.
8ff	4B	2D
8dd	.	.
8ee	[4B-	.
8ee	.	.
=171	=171	=171
4ee	8B-]	4C
.	8G#	.
4a	8A	4F
.	8A	.
4d	8A	4BB
.	8F#	.
4e	8G	4BB-
.	8G	.
=172	=172	=172
4r	8G	4AA
.	8E	.
4f	8F	4D
.	8F	.
4g	8F	2GG
.	8E-	.
4a	8D	.
.	8C#	.
=173	=173	=173
4r	8D	4FF
.	8F	.
4b-	8E	4GG
.	8D	.
4a	8C#	8AA
.	8D	8GG
4g	8BB	4AA
.	8C#	.
=174	=174	=174
4r	8D	4DD
.	8E	.
8f	8F	4.D
8e	8G	.
4f	4A	.
.	.	8C
4g	4d	8BB-
.	.	8D
=175	=175	=175
8a	4F#	4C
8g	.	.
8f#	4A	4.c
8a	.	.
4d	4d	.
.	.	8B-
[4dd	4f#	8A
.	.	8c
=176	=176	=176
8dd]	4.g	4B-
8cc	.	.
8b-	.	4.BB-
8dd	8f	.
4g	4e	.
.	.	8AA
[4cc	[4e-	8GG
.	.	8BB-
=177	=177	=177
8cc]	8e-]	4AA
8b-	8d	.
8a	8c	4.A
8cc	8e-	.
4b-	4d	.
.	.	8G
[4b-	[4d	8F#
.	.	8A
=178	=178	=178
16b-]	4d]	4G
16cc	.	.
16b-	.	.
16a	.	.
16g	8B-	8G
16b-	.	.
16cc	8B-	8G
16dd	.	.
16ee-	4B-	4G
16ff	.	.
16ee-	.	.
16dd	.	.
16cc#	8G	8E
16dd	.	.
16ee	8G	8E
16ff	.	.
=179	=179	=179
16gg	4G	4E
16aa	.	.
16gg	.	.
16ff	.	.
16ee	8B-	8C#
16ff	.	.
16gg	8B-	8C#
16aa	.	.
8bb-	4E	4C#
16aa	.	.
16gg	.	.
16ff	4r	4r
16ee	.	.
16dd	.	.
16cc#	.	.
=180	=180	=180
2.dd	8r	4r
.	8f	.
.	8f	4G#
.	8e	.
.	8e	4A
.	8g	.
4cc#	8g	4AA
.	8f#	.
=181	=181	=181
4dd	8f#	[1D
.	8a	.
4cc	8a	.
.	8g	.
8b	4g	.
8gg	.	.
8gg	4b-	.
8ff#	.	.
=182	=182	=182
8ff#	4a	2D]
8aa	.	.
8aa	4cc	.
8gg	.	.
8gg	8b-	2r
8ff	8a	.
8ee-	[4b-	.
8dd	.	.
=183	=183	=183
4cc#	8b-]	4r
.	8g#	.
4ff	8a	4AA
.	8a	.
4b	8a	4DD
.	8f#	.
4b-	8g	4EE
.	8g	.
=184	=184	=184
4a	8g	4r
.	8e	.
4dd	8f	4FF
.	8f	.
2g	8f	4GG
.	8e-	.
.	8d	4AA
.	8c#	.
=185	=185	=185
4f	8d	4r
.	8f	.
4g	8e	4BB-
.	8d	.
8a	8c#	4AA
8g	8d	.
4a	8B	4GG
.	8c#	.
=186	=186	=186
[1d	8d	4r
.	8B-	.
.	8A	8FF
.	8G	8EE
.	8A	4FF
.	16d	.
.	16c	.
.	16B-	4GG
.	16A	.
.	8G	.
=187	=187	=187
16d]	4F	1AA
16B	.	.
16c#	.	.
16d	.	.
16e	8E	.
16f	.	.
16g	8D	.
16e	.	.
4.c#	8E	.
.	8F	.
.	[4G	.
8d	.	.
=188	=188	=188
2d	4G]	2DD
.	4F#	.
2r	2r	2r
==	==	==
*-	*-	*-
!!!RWG1: This file contains only pitch and duration data.
!!!RWG2: Transposing instruments are not transposed.
!!!RWG3: Spines may have incompatible meters.
!!!RWG4: Durations of rests and tied notes may be interpreted.
!!!RWG: Key is interpreted using the Humdrum key tool.
!!!AFT: stage1
!!!END: 1997/04/15/
!!format changes:
!!content changes:
!!public access: complete
!!!KEY: 2353567891
!!!EMD: Converted from MuseData to Humdrum Dec 19, 2000, by Andreas Kornstaedt using muse2kern.
